X:1
T:天使頌歌
T:天使頌歌
T:Angels' Carol
T:John Rutter
T:Alto
C:John Rutter
L:1/8
Q:1/4=138
M:2/2
K:F
V:1 treble nm="T B"
V:1
 z8 | z8 | z2!mf! CC F2 A2 | G8- | G2 AG F2 G2 | A4 A4 | z2 CC F2 c2 | B4 B4- | B2 AB G2 d2 | c8 | %10
w: ||你 曾 否 得|聽|* 天 使 頌 美|歌 聲,|悠 揚 悅 耳、|鏗 鏘,|* 畫 過 長 *|空?|
 z8 | z8 | z8 | z8 | z8 | z8 | z8 | z8 | z2!mf!"^A" CC F2 A2 | G8- | G2 AG F2 G2 | A4 A4 | %22
w: ||||||||你 曾 否 聽|到|* 天 上 來 的|佳 音,|
 z2 CC F2 c2 | B4 B4- | B2 AB G2 d2 | c8- | c6 z2 |!f!"^B" (Bc) d4 cB | c2 A2 F2 D2 | (DE) F4 ED | %30
w: 傳 與 長 久|企 渴|* 卑 * 微 牧|人?||榮 * 光 歸 至|高 的 真 神,|榮 * 光 歸 至|
 E2 C2 D2 B,2 | z2 CC F2 A2 | G2 D2 C2 B,2 | A,8 | z8 | z8 | z2!p!"^C" CC F2 A2 | (G4 F4 | %38
w: 高 的 真 神!|同 來 聆 聽|天 使 樂 歌|韻。|||在 寧 靜 冬|天 *|
 E2) FE D2 E2 | F4 F4 | z2 CC F2 E2 | D4 D4- | D2 CD B,2 F2 | F8- | F2 z2 z4 | z2!mf! GG B2 d2 | %46
w: * 主 證 和 平|佳 音:|猶 如 雪 花|輕 飄,|* 降 於 靜 悄|夜;||主 帶 來 喜|
 (cB)AG F2 _E2 | F4 F4 | z8 | z2 (AG) F2 E2 | (D2 C2) (B,2 A,2) | B,8 | z2!p!"^D" CC F2 A2 | %53
w: 訊 * 彷 似 旭 日|東 升,||此 * 間 晨|暉 * 流 *|瀉。|祂 帶 來 主|
 (G4 F4 | E2) FE D2 E2 | F4 F4 | z2 CC F2 E2 | D4 D4- | D2 CD E2 B2 | A8- | A4 z4 | %61
w: 愛: *|* 以 那 人 子|式 樣;|在 那 陋 簡|馬 棚|* 我 眾 見 祂|生:||
"^E" (Bc) d4 cB | c2 A2 F2 D2 | (DE) F4 ED | E2 C2 D2 B,2 | z2 CC F2 A2 | G2 D2 C2 B,2 | A,8 | z8 | %69
w: 榮 * 光 歸 至|高 的 真 神,|榮 * 光 歸 至|高 的 真 神!|主 使 者 歌|唱 平 安 歸|人。||
 z8 |[K:G] z8"^F" | z2 CC E2 G2 | F2 GF E2 F2 | G4- G4 | z2 DD G2 B2 | B4 A4- | A2 GA F2 c2 | B8 | %78
w: ||主 帶 來 新|輝, 真 光 照 世|間, *|猶 同 景 星|高 天|* 八 方 耀 光|彩;|
 z8 | z2 AA c2 e2 | d8- | d2 cB A2 G2 | A4 A4- | A2!mf! BA G2 F2 | E2 D2 C2 B,2 | C8 | %86
w: |帶 來 新 希|望|* 給 那 久 待|邦 國|* 主 統 管, 以|真 純 與 仁|愛|
"^G" z2!f! DD G2 B2 | A8- | A2 BA G2 A2 | B4 B4 | z8 | z2 EE G2 B2 | A4 A4- | A2 GA F2 B2 | %94
w: 讓 世 間 歡|欣|* 迓 迎 救 主|聖 誕;||讓 那 人 天|歡 呼|* 在 清 晨 響|
 A4 G2 z2 |"^H" (cd) e4 dc | d2 B2 G2 E2 | (EF) G4 FE | F2 D2 E2 C2 | z2!mf! DD G2 B2 | %100
w: 應: *|榮 * 光 歸 至|高 的 真 神,|榮 * 光 歸 至|高 的 真 神!|主 使 者 都|
 A2 E2 D2 C2 | B,8- | B,8 |[M:4/4][Q:1/4=92] z2!p! DD G2 B2 | A2 E2 F2 A2 | B8- | B4 z4 | z8 |] %108
w: 歌 頌 主 生|辰。||主 使 者 都|頌 讚 主 誕|生|||

